icons/svg/bell-ring.svg

﻿<?xml version="1.0" encoding="utf-8"?>
<!DOCTYPE svg PUBLIC "-//W3C//DTD SVG 1.1//EN" "http://www.w3.org/Graphics/SVG/1.1/DTD/svg11.dtd">
<svg xmlns="http://www.w3.org/2000/svg" xmlns:xlink="http://www.w3.org/1999/xlink" version="1.1" baseProfile="full" width="24" height="24" viewBox="0 0 24.00 24.00" enable-background="new 0 0 24.00 24.00" xml:space="preserve">
	<path fill="#000000" fill-opacity="1" stroke-width="0.2" stroke-linejoin="round" d="M 11.4994,21.9981C 11.6374,21.9981 11.7724,21.9844 11.9024,21.9581C 12.5534,21.8242 13.0894,21.3751 13.3424,20.7764C 13.4434,20.5371 13.4994,20.2741 13.4994,19.9981L 9.49939,19.9981C 9.49939,21.1016 10.3954,21.9981 11.4994,21.9981 Z M 17.9994,10.4981C 17.9994,7.42507 15.8644,4.85707 12.9994,4.17907L 12.9994,3.49807C 12.9994,2.67006 12.3274,1.99807 11.4994,1.99807C 10.6714,1.99807 9.99939,2.67006 9.99939,3.49807L 9.99939,4.17907C 7.1344,4.85707 4.99939,7.42507 4.99939,10.4981L 4.99939,15.9981L 2.99939,17.9981L 2.99939,18.9981L 19.9994,18.9981L 19.9994,17.9981L 17.9994,15.9981M 19.9744,9.99807L 21.9744,9.99807C 21.8224,6.79407 20.2424,3.97207 17.8484,2.14907L 16.4214,3.57607C 18.4564,5.02639 19.8194,7.34807 19.9744,9.99807 Z M 6.57739,3.57607L 5.15039,2.14907C 2.75638,3.97207 1.17639,6.79407 1.02438,9.99807L 3.02438,9.99807C 3.17938,7.34807 4.54239,5.02639 6.57739,3.57607 Z "/>
</svg>

<svg xmlns="http://www.w3.org/2000/svg" version="1.1" baseProfile="full" width="24" height="24" viewBox="0 0 24.00 24.00" xml:space="preserve"><path fill="#000" fill-opacity="1" stroke-width=".2" stroke-linejoin="round" d="M11.5 21.998c.137 0 .272-.014.402-.04.65-.134 1.187-.583 1.44-1.182.1-.24.157-.502.157-.778h-4c0 1.104.895 2 2 2zm6.5-11.5c0-3.073-2.136-5.64-5-6.32V3.5c0-.828-.673-1.5-1.5-1.5-.83 0-1.5.672-1.5 1.5v.68c-2.866.68-5 3.247-5 6.32v5.5l-2 2v1h17v-1l-2-2m1.974-6h2c-.152-3.204-1.732-6.026-4.126-7.85L16.42 3.577c2.036 1.45 3.4 3.772 3.554 6.422zM6.577 3.576L5.15 2.15C2.756 3.97 1.176 6.793 1.024 9.997h2c.155-2.65 1.518-4.972 3.553-6.422z"/></svg>
